svg/building/taipei101_line.svg

<?xml version="1.0" encoding="UTF-8"?>
<svg width="24px" height="24px" viewBox="0 0 24 24" version="1.1" xmlns="http://www.w3.org/2000/svg" xmlns:xlink="http://www.w3.org/1999/xlink">
    <title>taipei101_line</title>
    <g id="页面-1" stroke="none" stroke-width="1" fill="none" fill-rule="evenodd">
        <g id="Building" transform="translate(-336.000000, -192.000000)">
            <g id="taipei101_line" transform="translate(336.000000, 192.000000)">
                 <path d="M24,0 L24,24 L0,24 L0,0 L24,0 Z M12.5934901,23.257841 L12.5819402,23.2595131 L12.5108777,23.2950439 L12.4918791,23.2987469 L12.4918791,23.2987469 L12.4767152,23.2950439 L12.4056548,23.2595131 C12.3958229,23.2563662 12.3870493,23.2590235 12.3821421,23.2649074 L12.3780323,23.275831 L12.360941,23.7031097 L12.3658947,23.7234994 L12.3769048,23.7357139 L12.4804777,23.8096931 L12.4953491,23.8136134 L12.4953491,23.8136134 L12.5071152,23.8096931 L12.6106902,23.7357139 L12.6232938,23.7196733 L12.6232938,23.7196733 L12.6266527,23.7031097 L12.609561,23.275831 C12.6075724,23.2657013 12.6010112,23.2592993 12.5934901,23.257841 L12.5934901,23.257841 Z M12.8583906,23.1452862 L12.8445485,23.1473072 L12.6598443,23.2396597 L12.6498822,23.2499052 L12.6498822,23.2499052 L12.6471943,23.2611114 L12.6650943,23.6906389 L12.6699349,23.7034178 L12.6699349,23.7034178 L12.678386,23.7104931 L12.8793402,23.8032389 C12.8914285,23.8068999 12.9022333,23.8029875 12.9078286,23.7952264 L12.9118235,23.7811639 L12.8776777,23.1665331 C12.8752882,23.1545897 12.8674102,23.1470016 12.8583906,23.1452862 L12.8583906,23.1452862 Z M12.1430473,23.1473072 C12.1332178,23.1423925 12.1221763,23.1452606 12.1156365,23.1525954 L12.1099173,23.1665331 L12.0757714,23.7811639 C12.0751323,23.7926639 12.0828099,23.8018602 12.0926481,23.8045676 L12.108256,23.8032389 L12.3092106,23.7104931 L12.3186497,23.7024347 L12.3186497,23.7024347 L12.3225043,23.6906389 L12.340401,23.2611114 L12.337245,23.2485176 L12.337245,23.2485176 L12.3277531,23.2396597 L12.1430473,23.1473072 Z" id="MingCute" fill-rule="nonzero"></path>
                <path d="M12.00001,1 C12.5523,1 13.00001,1.44772 13.00001,2 L13.00001,3 L14.50001,3 C15.1086,3 15.5865,3.5641 15.4864,4.1644 L15.1778,6.01592 C15.7378,6.11709 16.1086,6.68879 15.9702,7.24254 L15.2808,10 L15.50001,10 C16.1403,10 16.6254,10.6214 16.4702,11.2425 L15.5308,15 L16.00001,15 C16.6403,15 17.1254,15.6214 16.9702,16.2425 L15.7808,21 L16.00001,21 C16.5523,21 17.00001,21.4477 17.00001,22 C17.00001,22.5523 16.5523,23 16.00001,23 L8.00001,23 C7.44772,23 7.00001,22.5523 7.00001,22 C7.00001,21.4477 7.44772,21 8.00001,21 L8.21923,21 L7.02987,16.2425 C6.87458,15.6214 7.35974,15 8.00001,15 L8.46923,15 L7.52987,11.2425 C7.37458,10.6214 7.85974,10 8.50001,10 L8.71923,10 L8.02987,7.24254 C7.89143,6.68879 8.26224,6.11709 8.8222,6.01592 L8.51362,4.1644 C8.41357,3.5641 8.89143,3 9.50001,3 L11.00001,3 L11.00001,2 C11.00001,1.44772 11.4477,1 12.00001,1 Z M14.7192,17 L9.28079,17 L10.28079,21 L13.7192,21 L14.7192,17 Z M14.2192,12 L9.78079,12 C9.83268111,12.2075778 9.89700136,12.4233037 9.96567184,12.6439152 L10.1766551,13.317144 C10.3498852,13.8849444 10.4998111,14.4628889 10.5002,15 L13.4998,15 C13.5001889,14.4628889 13.6501148,13.8849444 13.8233432,13.317144 L14.0343235,12.6439152 C14.1029926,12.4233037 14.1673111,12.2075778 14.2192,12 Z M13.7192,8 L10.2808,8 L10.7808,10 L13.2192,10 L13.7192,8 Z M13.3195,5 L10.6805,5 L10.8471,6 L13.1529,6 L13.3195,5 Z" id="形状" fill="#09244B"></path>
            </g>
        </g>
    </g>
</svg>

<svg xmlns="http://www.w3.org/2000/svg" width="24" height="24"><g fill="none" fill-rule="evenodd"><path d="M24 0v24H0V0h24ZM12.593 23.258l-.011.002-.071.035-.02.004-.014-.004-.071-.035c-.01-.004-.019-.001-.024.005l-.004.01-.017.428.005.02.01.013.104.074.015.004.012-.004.104-.074.012-.016.004-.017-.017-.427c-.002-.01-.009-.017-.017-.018Zm.265-.113-.013.002-.185.093-.01.01-.003.011.018.43.005.012.008.007.201.093c.012.004.023 0 .029-.008l.004-.014-.034-.614c-.003-.012-.01-.02-.02-.022Zm-.715.002a.023.023 0 0 0-.027.006l-.006.014-.034.614c0 .012.007.02.017.024l.015-.002.201-.093.01-.008.004-.011.017-.43-.003-.012-.01-.01-.184-.092Z"/><path fill="#09244B" d="M12 1a1 1 0 0 1 1 1v1h1.5c.609 0 1.086.564.986 1.164l-.308 1.852c.56.101.93.673.792 1.227L15.28 10h.22c.64 0 1.125.621.97 1.242L15.53 15H16c.64 0 1.125.621.97 1.242L15.78 21H16a1 1 0 1 1 0 2H8a1 1 0 1 1 0-2h.22l-1.19-4.757A1.01 1.01 0 0 1 8 15h.47l-.94-3.758A1.01 1.01 0 0 1 8.5 10h.22l-.69-2.757a1.01 1.01 0 0 1 .792-1.227l-.308-1.852C8.414 3.564 8.89 3 9.5 3H11V2a1 1 0 0 1 1-1Zm2.72 16H9.28l1 4h3.44l1-4Zm-.5-5H9.78c.053.208.117.423.186.644l.21.673c.174.568.324 1.146.324 1.683h3c0-.537.15-1.115.323-1.683l.211-.673c.069-.22.133-.436.185-.644Zm-.5-4h-3.44l.5 2h2.44l.5-2Zm-.4-3h-2.64l.167 1h2.306l.166-1Z"/></g></svg>
